;Generated with Cura_SteamEngine 13.12
;FLAVOR:UltiGCode
;TIME:1999      
;MATERIAL:1839      
;MATERIAL2:0         

;Layer count: 98
;LAYER:0
M107
G0 F2700 X107.04 Y94.02 Z0.30
;TYPE:SKIRT
G11
G1 F900 X107.71 Y93.46 E0.10471
G1 X108.45 Y93.00 E0.20970
G1 X109.27 Y92.66 E0.31546
G1 X110.26 Y92.43 E0.43785
G1 X119.14 Y92.40 E1.50346
G1 X119.88 Y92.46 E1.59230
G1 X120.73 Y92.66 E1.69790
G1 X121.55 Y93.00 E1.80366
G1 X122.30 Y93.46 E1.90945
G1 X122.98 Y94.04 E2.01659
G1 X123.54 Y94.71 E2.12131
G1 X124.00 Y95.45 E2.22629
G1 X124.34 Y96.27 E2.33205
G1 X124.54 Y97.12 E2.43765
G1 X124.60 Y97.85 E2.52554
G1 X124.62 Y114.73 E4.55042
G1 X130.02 Y117.27 E5.26566
G1 X130.67 Y117.64 E5.35640
G1 X131.38 Y118.21 E5.46509
G1 X131.98 Y118.89 E5.57424
G1 X132.47 Y119.66 E5.68277
G1 X132.82 Y120.49 E5.79163
G1 X133.04 Y121.36 E5.89964
G1 X133.10 Y122.13 E5.99164
G1 X133.07 Y127.74 E6.66568
G1 X132.84 Y128.73 E6.78770
G1 X132.50 Y129.55 E6.89346
G1 X132.04 Y130.30 E6.99925
G1 X131.46 Y130.98 E7.10639
G1 X130.79 Y131.54 E7.21111
G1 X130.05 Y132.00 E7.31609
G1 X129.23 Y132.34 E7.42186
G1 X128.38 Y132.54 E7.52745
G1 X127.64 Y132.60 E7.61594
G1 X101.76 Y132.57 E10.72142
G1 X100.77 Y132.34 E10.84430
G1 X99.95 Y132.00 E10.95007
G1 X99.20 Y131.54 E11.05585
G1 X98.52 Y130.96 E11.16300
G1 X97.96 Y130.29 E11.26771
G1 X97.50 Y129.55 E11.37269
G1 X97.16 Y128.73 E11.47846
G1 X96.96 Y127.88 E11.58406
G1 X96.90 Y127.14 E11.67230
G1 X96.90 Y122.12 E12.27542
G1 X96.96 Y121.36 E12.36634
G1 X97.18 Y120.49 E12.47434
G1 X97.53 Y119.66 E12.58321
G1 X98.02 Y118.89 E12.69174
G1 X98.62 Y118.21 E12.80088
G1 X99.33 Y117.64 E12.91018
G1 X99.98 Y117.27 E12.99982
G1 X105.40 Y114.72 E13.71887
G1 X105.40 Y97.86 E15.74195
G1 X105.46 Y97.12 E15.83020
G1 X105.66 Y96.27 E15.93579
G1 X106.00 Y95.45 E16.04156
G1 X106.46 Y94.70 E16.14734
G1 X107.04 Y94.02 E16.25449
G0 F2700 X107.33 Y94.31
G1 F900 X107.94 Y93.78 E16.35163
G1 X108.64 Y93.36 E16.44918
G1 X109.39 Y93.05 E16.54737
G1 X110.31 Y92.83 E16.66039
G1 X119.12 Y92.80 E17.71831
G1 X119.81 Y92.86 E17.80150
G1 X120.61 Y93.05 E17.89958
G1 X121.36 Y93.36 E17.99777
G1 X122.06 Y93.79 E18.09602
G1 X122.69 Y94.33 E18.19552
G1 X123.22 Y94.94 E18.29265
G1 X123.64 Y95.64 E18.39021
G1 X123.96 Y96.39 E18.48839
G1 X124.15 Y97.19 E18.58648
G1 X124.20 Y97.87 E18.66883
G1 X124.22 Y114.98 E20.72215
G1 X129.83 Y117.62 E21.46585
G1 X130.45 Y117.97 E21.55083
G1 X131.10 Y118.50 E21.65177
G1 X131.66 Y119.13 E21.75318
G1 X132.11 Y119.84 E21.85389
G1 X132.44 Y120.62 E21.95490
G1 X132.64 Y121.43 E22.05526
G1 X132.70 Y122.14 E22.14136
G1 X132.67 Y127.70 E22.80773
G1 X132.46 Y128.61 E22.92037
G1 X132.14 Y129.37 E23.01855
G1 X131.71 Y130.06 E23.11681
G1 X131.18 Y130.69 E23.21630
G1 X130.56 Y131.22 E23.31344
G1 X129.87 Y131.64 E23.41099
G1 X129.11 Y131.96 E23.50918
G1 X128.31 Y132.15 E23.60727
G1 X127.63 Y132.20 E23.69009
G1 X101.81 Y132.18 E26.78801
G1 X100.89 Y131.96 E26.90141
G1 X100.14 Y131.64 E26.99960
G1 X99.44 Y131.21 E27.09785
G1 X98.81 Y130.68 E27.19734
G1 X98.28 Y130.06 E27.29448
G1 X97.86 Y129.37 E27.39203
G1 X97.55 Y128.61 E27.49022
G1 X97.36 Y127.81 E27.58831
G1 X97.30 Y127.13 E27.67089
G1 X97.30 Y122.14 E28.27005
G1 X97.36 Y121.43 E28.35519
G1 X97.56 Y120.62 E28.45554
G1 X97.89 Y119.84 E28.55655
G1 X98.34 Y119.13 E28.65726
G1 X98.90 Y118.50 E28.75867
G1 X99.56 Y117.97 E28.86004
G1 X100.16 Y117.62 E28.94394
G1 X105.80 Y114.97 E29.69160
G1 X105.80 Y97.87 E31.74324
G1 X105.86 Y97.19 E31.82583
G1 X106.05 Y96.39 E31.92392
G1 X106.36 Y95.64 E32.02210
G1 X106.79 Y94.94 E32.12036
G1 X107.33 Y94.31 E32.21985
G10
G0 F2700 X110.02 Y97.01
;TYPE:WALL-INNER
G11
G1 F900 X110.18 Y96.87 E32.24556
G1 X110.37 Y96.75 E32.27227
G1 X110.57 Y96.67 E32.29788
G1 X110.76 Y96.63 E32.32203
G1 X118.98 Y96.60 E33.30808
G1 X119.22 Y96.62 E33.33661
G1 X119.44 Y96.67 E33.36374
G1 X119.63 Y96.75 E33.38934
G1 X119.82 Y96.87 E33.41595
G1 X119.99 Y97.02 E33.44294
G1 X120.13 Y97.18 E33.46864
G1 X120.25 Y97.37 E33.49536
G1 X120.33 Y97.56 E33.52096
G1 X120.38 Y97.78 E33.54809
G1 X120.43 Y116.13 E35.74890
G1 X120.53 Y116.56 E35.80216
G1 X120.70 Y116.94 E35.85253
G1 X120.92 Y117.30 E35.90297
G1 X121.20 Y117.61 E35.95337
G1 X121.53 Y117.88 E36.00381
G1 X121.87 Y118.07 E36.05117
G1 X128.07 Y120.99 E36.87399
G1 X128.29 Y121.11 E36.90371
G1 X128.47 Y121.26 E36.93118
G1 X128.62 Y121.43 E36.95796
G1 X128.74 Y121.62 E36.98493
G1 X128.82 Y121.83 E37.01223
G1 X128.88 Y122.05 E37.03953
G1 X128.90 Y122.29 E37.06940
G1 X128.88 Y127.24 E37.66281
G1 X128.83 Y127.44 E37.68697
G1 X128.75 Y127.63 E37.71257
G1 X128.63 Y127.82 E37.73918
G1 X128.49 Y127.99 E37.76617
G1 X128.32 Y128.13 E37.79187
G1 X128.13 Y128.25 E37.81859
G1 X127.94 Y128.33 E37.84419
G1 X127.72 Y128.38 E37.87132
G1 X127.48 Y128.40 E37.89997
G1 X102.26 Y128.38 E40.92601
G1 X102.07 Y128.33 E40.95005
G1 X101.87 Y128.25 E40.97566
G1 X101.68 Y128.13 E41.00227
G1 X101.51 Y127.99 E41.02925
G1 X101.37 Y127.82 E41.05496
G1 X101.25 Y127.63 E41.08167
G1 X101.17 Y127.44 E41.10728
G1 X101.12 Y127.22 E41.13441
G1 X101.10 Y122.30 E41.72481
G1 X101.12 Y122.05 E41.75480
G1 X101.18 Y121.83 E41.78210
G1 X101.27 Y121.62 E41.80940
G1 X101.39 Y121.43 E41.83637
G1 X101.53 Y121.26 E41.86315
G1 X101.71 Y121.12 E41.89029
G1 X101.92 Y121.00 E41.91915
G1 X108.13 Y118.07 E42.74314
G1 X108.47 Y117.88 E42.79050
G1 X108.80 Y117.61 E42.84093
G1 X109.08 Y117.30 E42.89134
G1 X109.30 Y116.94 E42.94177
G1 X109.47 Y116.56 E42.99215
G1 X109.57 Y116.15 E43.04244
G1 X109.60 Y115.76 E43.08989
G1 X109.60 Y98.02 E45.21773
G1 X109.62 Y97.78 E45.24638
G1 X109.67 Y97.56 E45.27351
G1 X109.75 Y97.37 E45.29911
G1 X109.87 Y97.18 E45.32572
G1 X110.02 Y97.01 E45.35270
G0 F2700 X113.47 Y99.85
G1 F900 X113.23 Y100.17 E45.40078
G1 X113.05 Y100.52 E45.44860
G1 X112.94 Y100.91 E45.49668
G1 X112.90 Y101.30 E45.54442
G1 X112.94 Y101.70 E45.59240
G1 X113.05 Y102.09 E45.64058
G1 X113.24 Y102.44 E45.68851
G1 X113.48 Y102.76 E45.73638
G1 X113.79 Y103.02 E45.78446
G1 X114.13 Y103.22 E45.83236
G1 X114.51 Y103.34 E45.88029
G1 X114.90 Y103.40 E45.92806
G1 X115.30 Y103.38 E45.97612
G1 X115.69 Y103.29 E46.02405
G1 X116.06 Y103.12 E46.07206
G1 X116.37 Y102.89 E46.11911
G1 X116.66 Y102.60 E46.16809
G1 X116.87 Y102.26 E46.21616
G1 X117.02 Y101.89 E46.26393
G1 X117.09 Y101.50 E46.31171
G1 X117.09 Y101.11 E46.35887
G1 X117.02 Y100.71 E46.40777
G1 X116.87 Y100.33 E46.45586
G1 X116.65 Y100.00 E46.50386
G1 X116.37 Y99.71 E46.55173
G1 X116.05 Y99.48 E46.59984
G1 X115.68 Y99.31 E46.64791
G1 X115.30 Y99.22 E46.69567
G1 X114.90 Y99.20 E46.74360
G1 X114.50 Y99.26 E46.79153
G1 X114.12 Y99.39 E46.83961
G1 X113.78 Y99.59 E46.88758
G1 X113.47 Y99.85 E46.93548
G0 F2700 X112.90 Y101.30
G0 X113.48 Y102.75
G0 X114.76 Y120.61
G1 F900 X114.34 Y120.68 E46.98692
G1 X113.93 Y120.83 E47.03857
G1 X113.56 Y121.04 E47.09003
G1 X113.22 Y121.30 E47.14162
G1 X112.93 Y121.62 E47.19319
G1 X112.70 Y121.98 E47.24462
G1 X112.54 Y122.37 E47.29580
G1 X112.43 Y122.77 E47.34496
G1 X112.40 Y123.20 E47.39673
G1 X112.44 Y123.65 E47.45082
G1 X112.55 Y124.07 E47.50243
G1 X112.72 Y124.46 E47.55388
G1 X112.96 Y124.82 E47.60547
G1 X113.26 Y125.13 E47.65717
G1 X113.60 Y125.39 E47.70872
G1 X113.97 Y125.59 E47.75977
G1 X114.36 Y125.72 E47.80877
G1 X114.79 Y125.79 E47.86061
G1 X115.24 Y125.79 E47.91473
G1 X115.66 Y125.72 E47.96617
G1 X116.07 Y125.57 E48.01782
G1 X116.44 Y125.36 E48.06928
G1 X116.78 Y125.10 E48.12087
G1 X117.07 Y124.78 E48.17245
G1 X117.30 Y124.42 E48.22388
G1 X117.47 Y124.03 E48.27505
G1 X117.57 Y123.63 E48.32409
G1 X117.60 Y123.20 E48.37611
G1 X117.56 Y122.75 E48.43022
G1 X117.45 Y122.33 E48.48171
G1 X117.28 Y121.94 E48.53316
G1 X117.04 Y121.58 E48.58475
G1 X116.74 Y121.27 E48.63645
G1 X116.40 Y121.01 E48.68800
G1 X116.03 Y120.81 E48.73905
G1 X115.64 Y120.68 E48.78804
G1 X115.21 Y120.61 E48.83989
G1 X114.76 Y120.61 E48.89401
G0 F2700 X106.87 Y124.03
G1 F900 X106.65 Y123.70 E48.94201
G1 X106.37 Y123.41 E48.99005
G1 X106.05 Y123.18 E49.03809
G1 X105.68 Y123.01 E49.08594
G1 X105.30 Y122.92 E49.13382
G1 X104.90 Y122.90 E49.18187
G1 X104.50 Y122.96 E49.22980
G1 X104.12 Y123.09 E49.27788
G1 X103.78 Y123.29 E49.32585
G1 X103.47 Y123.55 E49.37375
G1 X103.23 Y123.87 E49.42183
G1 X103.05 Y124.22 E49.46965
G1 X102.94 Y124.61 E49.51762
G1 X102.90 Y125.00 E49.56548
G1 X102.94 Y125.40 E49.61360
G1 X103.05 Y125.79 E49.66164
G1 X103.24 Y126.14 E49.70957
G1 X103.48 Y126.45 E49.75744
G1 X103.79 Y126.72 E49.80552
G1 X104.13 Y126.91 E49.85341
G1 X104.51 Y127.04 E49.90134
G1 X104.90 Y127.10 E49.94911
G1 X105.30 Y127.08 E49.99729
G1 X105.69 Y126.99 E50.04535
G1 X106.05 Y126.82 E50.09303
G1 X106.37 Y126.59 E50.14011
G1 X106.66 Y126.30 E50.18925
G1 X106.87 Y125.96 E50.23732
G1 X107.02 Y125.59 E50.28510
G1 X107.09 Y125.20 E50.33287
G1 X107.10 Y124.80 E50.38003
G1 X107.02 Y124.40 E50.42894
G1 X106.87 Y124.03 E50.47702
G0 F2700 X115.24 Y125.79
G0 X116.78 Y125.10
G0 X122.90 Y125.00
G1 F900 X122.94 Y125.40 E50.52500
G1 X123.05 Y125.79 E50.57318
G1 X123.23 Y126.14 E50.62111
G1 X123.48 Y126.45 E50.66898
G1 X123.78 Y126.72 E50.71706
G1 X124.13 Y126.91 E50.76496
G1 X124.51 Y127.04 E50.81289
G1 X124.90 Y127.10 E50.86066
G1 X125.30 Y127.08 E50.90884
G1 X125.69 Y126.99 E50.95677
G1 X126.06 Y126.82 E51.00478
G1 X126.37 Y126.59 E51.05183
G1 X126.66 Y126.30 E51.10081
G1 X126.87 Y125.96 E51.14888
G1 X127.02 Y125.59 E51.19665
G1 X127.09 Y125.20 E51.24443
G1 X127.09 Y124.80 E51.29159
G1 X127.02 Y124.40 E51.34049
G1 X126.87 Y124.03 E51.38858
G1 X126.65 Y123.70 E51.43658
G1 X126.37 Y123.41 E51.48445
G1 X126.05 Y123.18 E51.53256
G1 X125.68 Y123.01 E51.58063
G1 X125.30 Y122.92 E51.62839
G1 X124.90 Y122.90 E51.67644
G1 X124.50 Y122.96 E51.72437
G1 X124.12 Y123.09 E51.77245
G1 X123.78 Y123.29 E51.82042
G1 X123.47 Y123.55 E51.86832
G1 X123.23 Y123.87 E51.91640
G1 X123.05 Y124.22 E51.96422
G1 X122.94 Y124.61 E52.01230
G1 X122.90 Y125.00 E52.06004
G0 F2700 X123.30 Y125.00
;TYPE:WALL-OUTER
G1 F900 X123.33 Y125.32 E52.09874
G1 X123.42 Y125.64 E52.13766
G1 X123.57 Y125.92 E52.17646
G1 X123.77 Y126.18 E52.21526
G1 X124.02 Y126.39 E52.25406
G1 X124.30 Y126.55 E52.29282
G1 X124.60 Y126.65 E52.33160
G1 X124.92 Y126.70 E52.37029
G1 X125.25 Y126.68 E52.40922
G1 X125.56 Y126.61 E52.44802
G1 X125.85 Y126.47 E52.48695
G1 X126.11 Y126.29 E52.52481
G1 X126.34 Y126.05 E52.56453
G1 X126.51 Y125.78 E52.60338
G1 X126.63 Y125.47 E52.64211
G1 X126.69 Y125.16 E52.68085
G1 X126.69 Y124.84 E52.71877
G1 X126.63 Y124.52 E52.75849
G1 X126.51 Y124.22 E52.79731
G1 X126.33 Y123.94 E52.83612
G1 X126.11 Y123.71 E52.87491
G1 X125.85 Y123.53 E52.91373
G1 X125.55 Y123.39 E52.95261
G1 X125.24 Y123.32 E52.99135
G1 X124.92 Y123.30 E53.03016
G1 X124.60 Y123.35 E53.06899
G1 X124.29 Y123.45 E53.10781
G1 X124.01 Y123.62 E53.14664
G1 X123.77 Y123.83 E53.18535
G1 X123.57 Y124.08 E53.22419
G1 X123.42 Y124.37 E53.26300
G1 X123.33 Y124.68 E53.30181
G1 X123.30 Y125.00 E53.34051
G0 F2700 X123.00 Y124.98
G0 X123.24 Y126.14
G0 X124.51 Y127.04
G0 X127.48 Y128.50
G0 X127.50 Y128.80
G1 F900 X102.21 Y128.78 E56.37459
G1 X101.94 Y128.71 E56.40778
G1 X101.68 Y128.60 E56.44172
G1 X101.44 Y128.46 E56.47559
G1 X101.22 Y128.27 E56.51023
G1 X101.05 Y128.06 E56.54317
G1 X100.90 Y127.82 E56.57705
G1 X100.79 Y127.56 E56.61099
G1 X100.72 Y127.28 E56.64554
G1 X100.70 Y122.27 E57.24638
G1 X100.72 Y121.98 E57.28119
G1 X100.79 Y121.70 E57.31580
G1 X100.91 Y121.43 E57.35112
G1 X101.06 Y121.19 E57.38554
G1 X101.26 Y120.97 E57.42056
G1 X101.48 Y120.79 E57.45563
G1 X101.74 Y120.64 E57.49062
G1 X107.94 Y117.72 E58.31403
G1 X108.25 Y117.54 E58.35558
G1 X108.52 Y117.32 E58.39826
G1 X108.76 Y117.06 E58.44076
G1 X108.95 Y116.76 E58.48354
G1 X109.09 Y116.43 E58.52607
G1 X109.17 Y116.08 E58.56870
G1 X109.20 Y115.74 E58.61037
G1 X109.20 Y98.00 E60.73893
G1 X109.22 Y97.72 E60.77215
G1 X109.29 Y97.44 E60.80670
G1 X109.40 Y97.18 E60.84064
G1 X109.55 Y96.94 E60.87452
G1 X109.73 Y96.72 E60.90915
G1 X109.94 Y96.55 E60.94210
G1 X110.18 Y96.40 E60.97597
G1 X110.44 Y96.29 E61.00991
G1 X110.71 Y96.22 E61.04310
G1 X119.00 Y96.20 E62.03718
G1 X119.28 Y96.22 E62.07076
G1 X119.56 Y96.29 E62.10531
G1 X119.82 Y96.40 E62.13925
G1 X120.06 Y96.55 E62.17313
G1 X120.28 Y96.73 E62.20776
G1 X120.46 Y96.94 E62.24071
G1 X120.60 Y97.18 E62.27458
G1 X120.71 Y97.44 E62.30853
G1 X120.78 Y97.72 E62.34307
G1 X120.83 Y116.08 E64.54532
G1 X120.91 Y116.43 E64.58895
G1 X121.05 Y116.76 E64.63148
G1 X121.24 Y117.06 E64.67425
G1 X121.48 Y117.32 E64.71676
G1 X121.76 Y117.54 E64.75943
G1 X122.06 Y117.72 E64.80099
G1 X128.51 Y120.78 E65.65896
G1 X128.74 Y120.97 E65.69436
G1 X128.94 Y121.19 E65.72938
G1 X129.09 Y121.43 E65.76380
G1 X129.21 Y121.70 E65.79913
G1 X129.28 Y121.98 E65.83373
G1 X129.30 Y122.27 E65.86854
G1 X129.28 Y127.29 E66.47059
G1 X129.21 Y127.56 E66.50389
G1 X129.10 Y127.82 E66.53783
G1 X128.96 Y128.06 E66.57170
G1 X128.77 Y128.28 E66.60634
G1 X128.56 Y128.46 E66.63928
G1 X128.32 Y128.60 E66.67316
G1 X128.06 Y128.71 E66.70710
G1 X127.78 Y128.78 E66.74165
G1 X127.50 Y128.80 E66.77523
G0 F2700 X127.48 Y128.50
G0 X117.19 Y124.39
G0 X116.94 Y124.23
G1 F900 X117.08 Y123.90 E66.81872
G1 X117.17 Y123.56 E66.86008
G1 X117.20 Y123.20 E66.90392
G1 X117.17 Y122.82 E66.94971
G1 X117.07 Y122.47 E66.99328
G1 X116.93 Y122.14 E67.03679
G1 X116.72 Y121.83 E67.08049
G1 X116.47 Y121.57 E67.12413
G1 X116.19 Y121.35 E67.16771
G1 X115.87 Y121.18 E67.21103
G1 X115.54 Y121.07 E67.25240
G1 X115.18 Y121.01 E67.29609
G1 X114.80 Y121.01 E67.34194
G1 X114.44 Y121.07 E67.38544
G1 X114.10 Y121.19 E67.42908
G1 X113.78 Y121.37 E67.47259
G1 X113.50 Y121.60 E67.51624
G1 X113.25 Y121.86 E67.55982
G1 X113.06 Y122.17 E67.60336
G1 X112.92 Y122.50 E67.64685
G1 X112.83 Y122.84 E67.68821
G1 X112.80 Y123.20 E67.73192
G1 X112.83 Y123.58 E67.77782
G1 X112.93 Y123.93 E67.82139
G1 X113.08 Y124.26 E67.86490
G1 X113.28 Y124.57 E67.90860
G1 X113.53 Y124.83 E67.95224
G1 X113.82 Y125.05 E67.99582
G1 X114.13 Y125.22 E68.03914
G1 X114.46 Y125.33 E68.08051
G1 X114.82 Y125.39 E68.12421
G1 X115.20 Y125.39 E68.17005
G1 X115.56 Y125.33 E68.21355
G1 X115.90 Y125.21 E68.25720
G1 X116.22 Y125.03 E68.30071
G1 X116.50 Y124.80 E68.34435
G1 X116.75 Y124.54 E68.38793
G1 X116.94 Y124.23 E68.43148
G0 F2700 X117.19 Y124.39
G0 X116.07 Y125.57
G0 X114.36 Y125.72
G0 X106.99 Y124.84
G0 X106.69 Y124.84
G1 F900 X106.63 Y124.52 E68.47120
G1 X106.51 Y124.22 E68.51002
G1 X106.34 Y123.94 E68.54883
G1 X106.11 Y123.71 E68.58762
G1 X105.85 Y123.53 E68.62654
G1 X105.55 Y123.39 E68.66531
G1 X105.24 Y123.32 E68.70405
G1 X104.92 Y123.30 E68.74286
G1 X104.60 Y123.35 E68.78169
G1 X104.29 Y123.45 E68.82051
G1 X104.01 Y123.62 E68.85934
G1 X103.77 Y123.83 E68.89805
G1 X103.57 Y124.08 E68.93689
G1 X103.42 Y124.37 E68.97569
G1 X103.33 Y124.68 E69.01440
G1 X103.30 Y125.00 E69.05323
G1 X103.33 Y125.33 E69.09206
G1 X103.42 Y125.64 E69.13086
G1 X103.57 Y125.92 E69.16967
G1 X103.77 Y126.18 E69.20846
G1 X104.02 Y126.39 E69.24726
G1 X104.30 Y126.55 E69.28602
G1 X104.60 Y126.65 E69.32480
G1 X104.92 Y126.70 E69.36350
G1 X105.25 Y126.68 E69.40242
G1 X105.56 Y126.61 E69.44122
G1 X105.85 Y126.47 E69.47993
G1 X106.11 Y126.29 E69.51789
G1 X106.34 Y126.05 E69.55770
G1 X106.51 Y125.78 E69.59654
G1 X106.63 Y125.47 E69.63527
G1 X106.69 Y125.16 E69.67401
G1 X106.69 Y124.84 E69.71193
G0 F2700 X106.99 Y124.84
G0 X114.20 Y103.13
G0 X114.30 Y102.85
G1 F900 X114.60 Y102.95 E69.75071
G1 X114.92 Y103.00 E69.78941
G1 X115.25 Y102.98 E69.82822
G1 X115.56 Y102.91 E69.86701
G1 X115.85 Y102.77 E69.90594
G1 X116.11 Y102.59 E69.94380
G1 X116.34 Y102.35 E69.98353
G1 X116.51 Y102.08 E70.02237
G1 X116.63 Y101.78 E70.06110
